X:750
T:Devil In the Kitchen, The
S:Various
Z:Nigel Gatherer
M:4/4
L:1/8
K:A
f<a|e>A A/A/A e>A (3fed|e>A A/A/A =g2 f<a|e>A A/A/A e>A (3fed|
B>=G (3dcB g2:|f>g|a>A A/A/A e>A A/A/A|a>A A/A/A =g2 f>g|
a>A A/A/A e>A (3fed|B>=G (3dcB g2 f>g|a>A A/A/A e>A A/A/A|
a>A A/A/A =g2 f>g|a>f =g>e f>d e>c|B.c d>e =g2|]
